apps/nuxt3-ssr/assets/minified-icons/Image Diagram.svg

<svg viewBox="0 0 24 24" fill="none" xmlns="http://www.w3.org/2000/svg"><path d="M22.48 12.24C22.48 11.5952 22.008 11.0588 21.3915 10.9575C21.1756 9.40476 20.565 7.93088 19.6177 6.67644C19.9615 6.22264 19.9432 5.43788 19.4808 4.99924C19.0688 4.5788 18.3282 4.47912 17.8036 4.86232C16.5493 3.91512 15.0751 3.30424 13.5225 3.08836C13.4211 2.47188 12.8848 2 12.24 2C11.595 2 11.0585 2.47224 10.9574 3.08904C10.3833 3.16888 9.81608 3.30244 9.26896 3.48812C9.11204 3.54136 9.02804 3.71172 9.08128 3.8686C9.12372 3.99356 9.24036 4.07228 9.36536 4.07228C9.39736 4.07228 9.42984 4.06712 9.4618 4.05628C9.96028 3.88712 10.4767 3.76396 10.9994 3.68872C11.1357 4.12256 11.4937 4.4588 11.94 4.56464V5.74716C10.3665 5.819 8.93716 6.45288 7.8484 7.4524L7.014 6.618C7.265 6.225 7.28412 5.7256 7.0708 5.3166C7.44112 5.03976 7.83452 4.7916 8.24272 4.5782C8.38956 4.50144 8.44636 4.3202 8.3696 4.17336C8.29284 4.02652 8.11156 3.96972 7.96476 4.04648C7.51532 4.28144 7.08284 4.55588 6.67672 4.86252C6.45716 4.70416 6.19448 4.61844 5.91848 4.61844C5.2558 4.60412 4.60508 5.19876 4.61848 5.91844C4.61848 6.19432 4.70412 6.45696 4.86232 6.67644C3.91496 7.93088 3.30444 9.40476 3.08852 10.9575C2.47196 11.0588 2 11.5952 2 12.24C2 12.8848 2.47188 13.4211 3.0884 13.5225C3.30424 15.075 3.91524 16.5495 4.86232 17.8036C4.51852 18.2574 4.5368 19.0422 4.9992 19.4808C5.41116 19.9012 6.15176 20.0009 6.6764 19.6177C7.93076 20.565 9.40428 21.1757 10.9574 21.3916C11.0589 22.0081 11.5952 22.48 12.24 22.48C12.8851 22.48 13.4217 22.0076 13.5227 21.3906C14.2473 21.2898 14.9582 21.104 15.6371 20.8354C15.7912 20.7745 15.8666 20.6002 15.8057 20.4461C15.7448 20.292 15.5705 20.2164 15.4164 20.2775C14.7945 20.5235 14.1438 20.6952 13.4804 20.7906C13.344 20.3571 12.9861 20.0211 12.54 19.9153V18.7328C14.1135 18.6609 15.5428 18.027 16.6316 17.0275L17.466 17.8619C17.2151 18.2547 17.1959 18.7538 17.4088 19.1626C17.1593 19.3492 16.8988 19.5242 16.6314 19.6823C16.4888 19.7666 16.4416 19.9506 16.5259 20.0932C16.5819 20.188 16.6818 20.2406 16.7844 20.2406C16.8363 20.2406 16.8889 20.2271 16.9368 20.1988C17.2351 20.0224 17.5256 19.8265 17.8029 19.6172C18.2567 19.9614 19.0419 19.9434 19.4808 19.4807C19.9012 19.0688 20.0009 18.3281 19.6177 17.8035C20.5648 16.5494 21.1758 15.0749 21.3916 13.5225C22.0081 13.4211 22.48 12.8848 22.48 12.24V12.24ZM18.5615 17.2616C18.3236 17.2616 18.0956 17.3251 17.8965 17.444L17.0547 16.6022C18.0386 15.5172 18.6616 14.0993 18.7328 12.54H19.9153C20.0212 12.9863 20.3575 13.3444 20.7914 13.4806C20.5866 14.9033 20.0267 16.2547 19.1637 17.409C18.9801 17.3127 18.7748 17.2616 18.5615 17.2616V17.2616ZM10.9994 20.7914C9.57596 20.5866 8.2254 20.0267 7.0708 19.1634C7.2778 18.7664 7.26608 18.2842 7.03568 17.8968L7.87592 17.0566C8.94884 18.0422 10.4534 18.6784 11.94 18.733V19.9154C11.4937 20.0212 11.1356 20.3575 10.9994 20.7914V20.7914ZM5.31624 17.409C4.4532 16.2546 3.89336 14.9032 3.6886 13.4806C4.12248 13.3444 4.4588 12.9863 4.56468 12.54H5.74772C5.75752 12.7548 5.777 12.9692 5.80756 13.1803C5.82924 13.3297 5.95744 13.4373 6.10408 13.4373C6.2494 13.4392 6.4176 13.2991 6.4014 13.0942C6.37488 12.9115 6.35784 12.726 6.34848 12.54H8.8436C8.86424 13.4295 8.97644 14.2871 9.17112 15.07H7.06108C6.94184 14.8504 6.83448 14.622 6.74168 14.3842C6.68144 14.2299 6.5076 14.1535 6.35316 14.2138C6.1988 14.274 6.12248 14.448 6.18276 14.6023C6.47776 15.3582 6.90724 16.0447 7.44936 16.6346L6.61824 17.4658C6.27168 17.2411 5.73884 17.1818 5.31624 17.409V17.409ZM5.91848 7.21844C6.15636 7.21844 6.38444 7.15492 6.58348 7.03604L7.42528 7.87784C6.44132 8.96284 5.8184 10.3807 5.74716 11.94H4.56468C4.4588 11.4937 4.12256 11.1356 3.68868 10.9994C3.89352 9.57652 4.45296 8.22568 5.31628 7.07104C5.49992 7.16728 5.70524 7.21844 5.91848 7.21844V7.21844ZM13.4806 3.68864C14.9034 3.89344 16.2547 4.4532 17.4092 5.31648C17.2022 5.71348 17.2138 6.19576 17.4443 6.58316L16.6042 7.42328C15.5284 6.43624 14.0276 5.802 12.54 5.74708V4.56468C12.9863 4.4588 13.3444 4.12252 13.4806 3.68864V3.68864ZM19.1638 7.07104C20.027 8.22568 20.5865 9.57652 20.7913 10.9994C20.3575 11.1357 20.0212 11.4937 19.9153 11.94H18.7323C18.7236 11.7502 18.7076 11.5607 18.6828 11.3739C18.6609 11.2097 18.51 11.0945 18.3458 11.1162C18.1816 11.138 18.0661 11.2889 18.088 11.4532C18.1094 11.6138 18.1234 11.7767 18.1316 11.9401H15.6364C15.6158 11.0506 15.5036 10.1929 15.3089 9.41008H17.4167C17.5483 9.64952 17.6647 9.89928 17.7627 10.1593C17.8212 10.3143 17.9942 10.3926 18.1492 10.3342C18.3043 10.2758 18.3826 10.1027 18.3241 9.94764C18.0288 9.16432 17.5894 8.45416 17.0303 7.8458L17.8618 7.01424C18.2083 7.23892 18.7412 7.29816 19.1638 7.07104V7.07104ZM17.4156 15.07H15.3089C15.5036 14.2872 15.6158 13.4295 15.6364 12.54H18.1324C18.0865 13.453 17.8318 14.3118 17.4156 15.07ZM7.43496 15.67H9.3412C9.5794 16.4359 10.0102 17.3218 10.5394 17.8934C9.28552 17.5208 8.19496 16.7414 7.43496 15.67ZM6.34756 11.94C6.39352 11.027 6.64812 10.1682 7.06432 9.41H9.17108C8.9764 10.1928 8.86416 11.0505 8.84356 11.94H6.34756ZM9.79568 9.41H11.94V11.94H9.44376C9.4666 11.0328 9.5922 10.1723 9.79568 9.41ZM17.0384 8.81H15.1388C14.9016 8.04808 14.475 7.16848 13.9503 6.59716C15.1894 6.9762 16.2803 7.75616 17.0384 8.81V8.81ZM12.54 8.81V6.37572C13.3359 6.56392 14.0437 7.48924 14.5012 8.81H12.54ZM14.6843 9.41C14.8878 10.1723 15.0134 11.0328 15.0362 11.94H12.54V9.41H14.6843ZM11.94 8.81H9.9788C10.4363 7.48924 11.144 6.56392 11.94 6.37572V8.81ZM11.94 12.54V15.07H9.79568C9.5922 14.3077 9.4666 13.4472 9.4438 12.54H11.94ZM11.94 15.67V18.1043C11.1441 17.9161 10.4363 16.9908 9.9788 15.67H11.94ZM12.54 15.67H14.5012C14.0437 16.9908 13.336 17.9161 12.54 18.1043V15.67ZM12.54 15.07V12.54H15.0362C15.0134 13.4472 14.8878 14.3077 14.6844 15.07H12.54ZM9.77964 7.72176C9.61224 8.05656 9.46572 8.42148 9.34116 8.81H7.4422C8.19212 7.76404 9.27516 6.97256 10.5348 6.59156C10.2588 6.89348 10.0046 7.27188 9.77964 7.72176V7.72176ZM14.7004 16.7582C14.8678 16.4234 15.0143 16.0585 15.1388 15.67H17.0378C16.2879 16.716 15.2048 17.5074 13.9452 17.8884C14.2212 17.5865 14.4754 17.2081 14.7004 16.7582ZM21.88 12.24C21.88 12.626 21.566 12.94 21.18 12.94C20.794 12.94 20.48 12.626 20.48 12.24C20.48 11.854 20.794 11.54 21.18 11.54C21.566 11.54 21.88 11.854 21.88 12.24ZM18.5615 5.21848C18.7485 5.21848 18.9243 5.29128 19.0565 5.42352C19.2979 5.6586 19.3461 6.1286 19.0565 6.41344C18.8215 6.65476 18.3513 6.70312 18.0666 6.41344C17.7936 6.14052 17.7936 5.69644 18.0665 5.42348C18.1988 5.29128 18.3746 5.21848 18.5615 5.21848V5.21848ZM11.54 3.3C11.54 2.91404 11.854 2.6 12.24 2.6C12.626 2.6 12.94 2.91404 12.94 3.3C12.94 3.68596 12.626 4 12.24 4C11.854 4 11.54 3.68596 11.54 3.3ZM5.42352 5.42348C5.65856 5.18212 6.12864 5.13388 6.41344 5.42348C6.68636 5.6964 6.68636 6.14048 6.41348 6.41344C6.17836 6.6548 5.70832 6.70304 5.42348 6.41344C5.18212 6.17832 5.13388 5.70832 5.42352 5.42348V5.42348ZM2.6 12.24C2.6 11.854 2.91404 11.54 3.3 11.54C3.68596 11.54 4 11.854 4 12.24C4 12.626 3.68596 12.94 3.3 12.94C2.91404 12.94 2.6 12.626 2.6 12.24ZM5.91848 19.2615C5.73148 19.2615 5.55572 19.1887 5.42348 19.0565C5.18216 18.8214 5.13388 18.3514 5.42352 18.0666C5.65856 17.8252 6.12864 17.777 6.41344 18.0666C6.68636 18.3395 6.68636 18.7836 6.41348 19.0565C6.28124 19.1887 6.10544 19.2615 5.91848 19.2615V19.2615ZM12.94 21.18C12.94 21.566 12.626 21.88 12.24 21.88C11.854 21.88 11.54 21.566 11.54 21.18C11.54 20.794 11.854 20.48 12.24 20.48C12.626 20.48 12.94 20.794 12.94 21.18ZM19.0565 19.0565C18.8214 19.2979 18.3514 19.3461 18.0665 19.0565H18.0666C17.7936 18.7836 17.7936 18.3395 18.0665 18.0666C18.3016 17.8252 18.7717 17.777 19.0565 18.0666C19.2979 18.3017 19.3461 18.7717 19.0565 19.0565Z" fill="currentColor"/></svg>

<svg fill="none" xmlns="http://www.w3.org/2000/svg" viewBox="0 0 24 24"><path d="M22.48 12.24c0-.645-.472-1.181-1.088-1.283a9.21 9.21 0 0 0-1.774-4.28c.344-.454.325-1.24-.137-1.678-.412-.42-1.153-.52-1.677-.137a9.211 9.211 0 0 0-4.281-1.774A1.302 1.302 0 0 0 12.24 2c-.645 0-1.181.472-1.283 1.089a9.208 9.208 0 0 0-1.688.4.3.3 0 1 0 .193.567 8.609 8.609 0 0 1 1.537-.367c.137.434.495.77.941.876v1.182a6.475 6.475 0 0 0-4.092 1.705l-.834-.834c.251-.393.27-.892.057-1.301.37-.277.764-.525 1.172-.739a.3.3 0 1 0-.278-.532c-.45.235-.882.51-1.288.817a1.29 1.29 0 0 0-.759-.245c-.662-.014-1.313.58-1.3 1.3 0 .276.086.539.244.758a9.21 9.21 0 0 0-1.773 4.281A1.302 1.302 0 0 0 2 12.24c0 .645.472 1.181 1.088 1.283a9.212 9.212 0 0 0 1.774 4.28c-.343.454-.325 1.24.137 1.678.412.42 1.153.52 1.677.137a9.208 9.208 0 0 0 4.281 1.774 1.302 1.302 0 0 0 1.283 1.088c.645 0 1.182-.472 1.283-1.09a9.193 9.193 0 0 0 2.114-.555.3.3 0 1 0-.22-.558 8.59 8.59 0 0 1-1.937.514 1.305 1.305 0 0 0-.94-.876v-1.182a6.476 6.476 0 0 0 4.092-1.706l.834.835c-.25.393-.27.892-.057 1.3a8.67 8.67 0 0 1-.778.52.3.3 0 0 0 .306.517c.298-.177.589-.373.866-.582.454.344 1.239.326 1.678-.136.42-.412.52-1.153.137-1.678a9.211 9.211 0 0 0 1.774-4.28 1.302 1.302 0 0 0 1.088-1.283Zm-3.919 5.022c-.237 0-.465.063-.665.182l-.841-.842a6.475 6.475 0 0 0 1.678-4.062h1.182c.106.446.443.804.876.94a8.613 8.613 0 0 1-1.627 3.929 1.292 1.292 0 0 0-.603-.147ZM11 20.792a8.609 8.609 0 0 1-3.928-1.629c.207-.397.195-.879-.035-1.266l.84-.84c1.073.985 2.577 1.621 4.064 1.676v1.182a1.305 1.305 0 0 0-.94.876Zm-5.683-3.383a8.613 8.613 0 0 1-1.627-3.928c.433-.137.77-.495.876-.941h1.183c.01.215.029.43.06.64a.3.3 0 0 0 .296.257.314.314 0 0 0 .297-.343 5.942 5.942 0 0 1-.053-.554h2.496c.02.89.132 1.747.327 2.53h-2.11a6.033 6.033 0 0 1-.32-.686.3.3 0 1 0-.558.218 6.48 6.48 0 0 0 1.266 2.033l-.83.83a1.329 1.329 0 0 0-1.303-.056Zm.602-10.19c.238 0 .466-.064.665-.183l.842.842a6.475 6.475 0 0 0-1.678 4.062H4.565a1.305 1.305 0 0 0-.876-.94A8.61 8.61 0 0 1 5.316 7.07c.184.096.39.147.602.147Zm7.563-3.53a8.611 8.611 0 0 1 3.928 1.627c-.207.397-.195.88.035 1.267l-.84.84c-1.076-.987-2.576-1.621-4.064-1.676V4.565c.446-.106.804-.442.94-.876Zm5.683 3.382a8.61 8.61 0 0 1 1.627 3.928c-.433.137-.77.495-.876.941h-1.183a6.607 6.607 0 0 0-.05-.566.3.3 0 0 0-.594.08c.021.16.035.323.044.486h-2.496a11.67 11.67 0 0 0-.327-2.53h2.108c.131.24.248.49.346.75a.3.3 0 0 0 .561-.212 6.478 6.478 0 0 0-1.294-2.102l.832-.832c.346.225.88.284 1.302.057Zm-1.748 7.999h-2.107c.195-.783.307-1.64.327-2.53h2.496a5.858 5.858 0 0 1-.716 2.53Zm-9.981.6h1.906c.238.766.67 1.652 1.198 2.223a5.84 5.84 0 0 1-3.104-2.223Zm-1.087-3.73c.046-.913.3-1.772.716-2.53h2.107a11.67 11.67 0 0 0-.327 2.53H6.348Zm3.448-2.53h2.144v2.53H9.444a10.96 10.96 0 0 1 .352-2.53Zm7.242-.6h-1.9c-.236-.762-.663-1.642-1.188-2.213a5.961 5.961 0 0 1 3.088 2.213Zm-4.498 0V6.376c.796.188 1.504 1.113 1.961 2.434H12.54Zm2.144.6c.204.762.33 1.623.352 2.53H12.54V9.41h2.144Zm-2.744-.6H9.979c.457-1.32 1.165-2.246 1.961-2.434V8.81Zm0 3.73v2.53H9.796a10.958 10.958 0 0 1-.352-2.53h2.496Zm0 3.13v2.434c-.796-.188-1.504-1.113-1.961-2.434h1.961Zm.6 0h1.961c-.457 1.32-1.165 2.246-1.961 2.434V15.67Zm0-.6v-2.53h2.496a10.962 10.962 0 0 1-.352 2.53H12.54ZM9.78 7.722c-.168.335-.314.7-.439 1.088H7.442a5.923 5.923 0 0 1 3.093-2.218c-.276.301-.53.68-.755 1.13Zm4.92 9.036c.168-.335.314-.7.439-1.088h1.899a5.923 5.923 0 0 1-3.093 2.218c.276-.302.53-.68.755-1.13Zm7.18-4.518a.7.7 0 1 1-1.402-.002.7.7 0 0 1 1.402.002Zm-3.319-7.022c.188 0 .363.073.495.206.242.235.29.705 0 .99-.235.24-.705.29-.99 0a.7.7 0 0 1 .495-1.196ZM11.54 3.3a.7.7 0 1 1 1.402.002.7.7 0 0 1-1.402-.002ZM5.424 5.423c.235-.24.705-.29.99 0a.7.7 0 0 1 0 .99c-.236.242-.706.29-.99 0-.242-.235-.29-.705 0-.99ZM2.6 12.24a.7.7 0 1 1 1.402.002.7.7 0 0 1-1.402-.002Zm3.318 7.022a.696.696 0 0 1-.495-.206c-.24-.235-.29-.705 0-.99.236-.24.706-.289.99 0a.7.7 0 0 1-.495 1.196Zm7.022 1.918a.7.7 0 1 1-1.402-.002.7.7 0 0 1 1.402.002Zm6.117-2.123c-.236.24-.706.29-.99 0a.7.7 0 0 1 0-.99c.235-.242.705-.29.99 0 .24.235.29.705 0 .99Z" fill="currentColor"/></svg>
